24x24/apps/quiterss.svg

<svg xmlns="http://www.w3.org/2000/svg" width="24" height="24" version="1.1">
 <path style="fill:#4dc76c" d="m 3.5,2 h 14 l 1.586911,1.6848366 c 0.569763,0.6049222 0.891695,0.9338498 1.5,1.4999999 L 22,6.5 v 14 C 22,21.331 21.331,22 20.5,22 H 3.5 C 2.669,22 2,21.331 2,20.5 V 3.5 C 2,2.669 2.669,2 3.5,2 Z"/>
 <path style="opacity:0.2;fill:#f4f4f7" d="M 3.5,2 C 2.669,2 2,2.669 2,3.5 V 4 C 2,3.169 2.669,2.5 3.5,2.5 h 12 V 2 Z"/>
 <path style="opacity:0.2" d="M 2,20.5 V 21 c 0,0.831 0.669,1.5 1.5,1.5 h 17 C 21.331,22.5 22,21.831 22,21 V 20.5 C 22,21.331 21.331,22 20.5,22 H 3.5 C 2.669,22 2,21.331 2,20.5 Z"/>
 <path style="opacity:0.2" d="m 4,9.5 c 0,0.5 0.5,1 1,1 4.97055,-5e-6 9,4.02945 9,9 0,0.5 0.45347,1 1,1 0.5,0 1,-0.5 1,-1 0,-6.075 -4.92485,-11 -11,-11 -0.5,0 -1,0.5 -1,1 z m 0,4 c 0,0.5 0.5,1 1,1 2.76145,-3e-6 5,2.23855 5,5 0,0.5 0.5,1 1,1 0.5,0 1,-0.5 1,-1 0,-3.866 -3.134,-7 -7,-7 -0.5,0 -1,0.5 -1,1 z m 2,3 c -1.10455,0 -2,0.89545 -2,2 0,1.1045 0.8955,2 2,2 1.10455,0 2,-0.89545 2,-2 0,-1.10455 -0.89545,-2 -2,-2 z"/>
 <path style="fill:#f4f4f7" d="m 4,9 c 0,0.5 0.5,1 1,1 4.97055,-5e-6 9,4.02945 9,9 0,0.5 0.45347,1 1,1 0.5,0 1,-0.5 1,-1 C 16,12.925 11.07515,8 5,8 4.5,8 4,8.5 4,9 Z m 0,4 c 0,0.5 0.5,1 1,1 2.76145,-3e-6 5,2.23855 5,5 0,0.5 0.5,1 1,1 0.5,0 1,-0.5 1,-1 0,-3.866 -3.134,-7 -7,-7 -0.5,0 -1,0.5 -1,1 z m 2,3 c -1.10455,0 -2,0.89545 -2,2 0,1.1045 0.8955,2 2,2 1.10455,0 2,-0.89545 2,-2 0,-1.10455 -0.89545,-2 -2,-2 z"/>
 <circle style="opacity:0.2" cx="17.5" cy="7" r="5.5"/>
 <circle style="fill:#ffbd1e" cx="17.5" cy="6.5" r="5.5"/>
 <path style="fill:#f4f4f7" d="M 17.5,2.4999999 18.736068,4.9688469 21.5,5.364745 19.5,7.2864745 19.972135,10 17.5,8.718847 15.027864,9.9999995 15.5,7.2864745 13.5,5.364745 16.263932,4.9688468 Z"/>
</svg>

<svg xmlns="http://www.w3.org/2000/svg" width="24" height="24"><path style="fill:#4dc76c" d="M3.5 2h14l1.587 1.685c.57.605.892.934 1.5 1.5L22 6.5v14c0 .831-.669 1.5-1.5 1.5h-17c-.831 0-1.5-.669-1.5-1.5v-17C2 2.669 2.669 2 3.5 2z"/><path style="opacity:.2;fill:#f4f4f7" d="M3.5 2C2.669 2 2 2.669 2 3.5V4c0-.831.669-1.5 1.5-1.5h12V2z"/><path style="opacity:.2" d="M2 20.5v.5c0 .831.669 1.5 1.5 1.5h17c.831 0 1.5-.669 1.5-1.5v-.5c0 .831-.669 1.5-1.5 1.5h-17c-.831 0-1.5-.669-1.5-1.5zM4 9.5c0 .5.5 1 1 1a9 9 0 0 1 9 9c0 .5.453 1 1 1 .5 0 1-.5 1-1 0-6.075-4.925-11-11-11-.5 0-1 .5-1 1zm0 4c0 .5.5 1 1 1a5 5 0 0 1 5 5c0 .5.5 1 1 1s1-.5 1-1a7 7 0 0 0-7-7c-.5 0-1 .5-1 1zm2 3a2 2 0 1 0 0 4 2 2 0 0 0 0-4z"/><path style="fill:#f4f4f7" d="M4 9c0 .5.5 1 1 1a9 9 0 0 1 9 9c0 .5.453 1 1 1 .5 0 1-.5 1-1 0-6.075-4.925-11-11-11-.5 0-1 .5-1 1zm0 4c0 .5.5 1 1 1a5 5 0 0 1 5 5c0 .5.5 1 1 1s1-.5 1-1a7 7 0 0 0-7-7c-.5 0-1 .5-1 1zm2 3a2 2 0 1 0 0 4 2 2 0 0 0 0-4z"/><circle style="opacity:.2" cx="17.5" cy="7" r="5.5"/><circle style="fill:#ffbd1e" cx="17.5" cy="6.5" r="5.5"/><path style="fill:#f4f4f7" d="m17.5 2.5 1.236 2.469 2.764.396-2 1.921.472 2.714L17.5 8.719 15.028 10l.472-2.714-2-1.921 2.764-.396z"/></svg>
